X: 16
T: Missa O venus bant &mdash; Gloria
C: Gaspar van Weerbeke
%%abc-version 2.0
%%abcx-abcm2ps-target-version 5.9.1 (29 Sep 2008)
%%abc-creator hum2abc beta
%%abcx-conversion-date 2022/03/06 13:05:54
%%abc-copyright Copyright 2014, Pavanello, Agnese
%%abc-edited-by Mair-Gruber, Roland
%%humdrum-veritas 4174086385
%%humdrum-veritas-data 1449872773
%%linebreak <none>
%%barnumbers 0
L: 1/4
M: 3/2
N: Derived from Gas0102b-Missa_O_venus_bant-Gloria.krn
%%staves [1 2 3 4]
V: 1 clef=treble
V: 2 clef=treble-8
V: 3 clef=treble-8
V: 4 clef=bass
K: C
[V:1] G4F2 | 
[V:2] G4A2 | 
[V:3] z6 | 
[V:4] z6 | 
[V:1] ED2G2^F | 
[V:2] G>ABcA2 | 
[V:3] z6 | 
[V:4] z6 | 
[V:1] G>FGA2G/F/ | 
[V:2] Gc>Bcd2 | 
[V:3] z6 | 
[V:4] z6 | 
[V:1] EAcBAd- | 
[V:2] cA2d2f | 
[V:3] z6 | 
[V:4] z6 | 
[V:1] dcBd>cB | 
[V:2] e2d>c B/A/G | 
[V:3] z6 | 
[V:4] z6 | 
[V:1] AGAB>AG | 
[V:2] cBcd2c/B/ | 
[V:3] z6 | 
[V:4] z6 | 
[V:1] FG2FED- | 
[V:2] AB2AGB- | 
[V:3] z6 | 
[V:4] z6 | 
[V:1] D/C/B,A,2G,C | 
[V:2] B/A/G2FGA | 
[V:3] z6 | 
[V:4] z6 | 
[V:1] DE2C2G- | 
[V:2] Gc>de2c- | 
[V:3] z6 | 
[V:4] z6 | 
[V:1] GFED/C/B,C- | 
[V:2] cdcB/A/Gg- | 
[V:3] z6 | 
[V:4] z6 | 
[V:1] CDCB,/A,/G,G- | 
[V:2] gfed/c/Bc- | 
[V:3] z6 | 
[V:4] z6 | 
[V:1] G/E<FE/D/C/D2 | 
[V:2] cd>cB/A/B2 | 
[V:3] z6 | 
[V:4] z6 | 
[V:1] C2c2B2- | 
[V:2] c2e>fg2 | 
[V:3] G6- | 
[V:4] C,4G,,2- | 
[V:1] Bc2B/A/G2 | 
[V:2] de2d2^c | 
[V:3] G6 | 
[V:4] G,,C,2D,E,2 | 
[V:1] F2EF>GA- | 
[V:2] d2z2dc | 
[V:3] A6- | 
[V:4] D,2A,,D,>E,F,- | 
[V:1] A/B/c2B/A/B2 | 
[V:2] f2e>fge | 
[V:3] A2G4 | 
[V:4] F,2C,2G,,2 | 
[V:1] A4Bd- | 
[V:2] f3d>cB/A/ | 
[V:3] F4G2- | 
[V:4] D,2D,>C, B,,/A,,/G,,- | 
[V:1] d/c/B/A/ c/B/A/G<^FE/ | 
[V:2] B2A/B/c/B//c//d2 | 
[V:3] G2A4 | 
[V:4] G,,G,F,>E,D,2 | 
[V:1] G4z2 | 
[V:2] B>cdedc- | 
[V:3] G6 | 
[V:4] G,,>A,,B,,C,B,,C,- | 
[V:1] z6 | 
[V:2] c/B/GFG2F | 
[V:3] G2Ac2B | 
[V:4] C,E,D,C,D,2 | 
[V:1] E2>E2E2 | 
[V:2] G4zG | 
[V:3] c6 | 
[V:4] C,6 | 
[V:1] FG2F/E/D2 | 
[V:2] ABGc2B | 
[V:3] z6 | 
[V:4] zB,,C,2G,2 | 
[V:1] CG,>A, B,/C/DF | 
[V:2] cg2f/e/d2 | 
[V:3] z6 | 
[V:4] C,E,2D,/C,/B,,2 | 
[V:1] EC2c2B | 
[V:2] cGEFD2 | 
[V:3] z6 | 
[V:4] C,2>A,,2G,,2 | 
[V:1] c4z2 | 
[V:2] E>FG>FGA- | 
[V:3] c6 | 
[V:4] C,2C,>D,E,F,- | 
[V:1] z2z2d2 | 
[V:2] AGFED2 | 
[V:3] c2BA2^G | 
[V:4] F,E,D,C,B,,2 | 
[V:1] c2BA>GF/E/ | 
[V:2] E2DF>GA- | 
[V:3] A6- | 
[V:4] A,,2D,2D,2- | 
[V:1] FA2GFE/D/ | 
[V:2] A/G/F/E<DE/F2 | 
[V:3] A6 | 
[V:4] D,F,>E,D,/C,/D,2 | 
[V:1] E2zEDG- | 
[V:2] G2c2BB- | 
[V:3] c4G2- | 
[V:4] C,4zE,- | 
[V:1] GEF>GAB- | 
[V:2] BA/G/A2z2 | 
[V:3] G2d4 | 
[V:4] E,/F,/G,D,>E,F,G,- | 
[V:1] B/A/G2E^F2 | 
[V:2] d2dd>cA | 
[V:3] B2A4 | 
[V:4] G,/F,/G,D,>C,D,2 | 
[V:1] G2z2z2 | 
[V:2] B>cd>cA2 | 
[V:3] G4z2 | 
[V:4] G,,2zG,,D,D, | 
[V:1] z6 | 
[V:2] Gc2Bc2 | 
[V:3] zGdde3/e/ | 
[V:4] E,E,D,D,C,E, | 
[V:1] z2z2zG | 
[V:2] z6 | 
[V:3] ddc2z2 | 
[V:4] F,G,C,2F,2 | 
[V:1] c>cA>Ac3/c/ | 
[V:2] zcc>AA3/A/ | 
[V:3] z6 | 
[V:4] C,2F,4 | 
[V:1] G>Gd>c _B/A/B- | 
[V:2] c>cG2d2- | 
[V:3] z6 | 
[V:4] z2_B,2G,3/F,/ | 
[V:1] Bc2A2G | 
[V:2] de2c_B2 | 
[V:3] z6 | 
[V:4] E,/D,/C,2F,G,2 | 
[V:1] A4z2 | 
[V:2] A4z2 | 
[V:3] z2zAcc | 
[V:4] D,A,,C,C,A,,A,, | 
[V:1] z6 | 
[V:2] z6 | 
[V:3] AAd2BG- | 
[V:4] D,>C, B,,/A,,/G,,2C, | 
[V:1] z6 | 
[V:2] z6 | 
[V:3] GcBA2G- | 
[V:4] B,,A,,D,2B,,C, | 
[V:1] c2BA2G | 
[V:2] z6 | 
[V:3] G^FGA2B | 
[V:4] A,,2G,,F,2G, | 
[V:1] EFDG2^F | 
[V:2] z2z2d2 | 
[V:3] cdBcA2 | 
[V:4] A,D,G,C,D,2 | 
[V:1] GEDE>FG- | 
[V:2] Bcdc>BG | 
[V:3] G6- | 
[V:4] G,,C,B,,C,>D,E,- | 
[V:1] G/F/EDCD2 | 
[V:2] C/D/E/F/Gc2B | 
[V:3] G6 | 
[V:4] E,/D,/C,B,,C,G,,2 | 
[V:1] E6 ||  
[V:2] c6 ||  
[V:3] G6 ||  
[V:4] C,6 ||  
[V:1] [M:2/2]z4 | 
[V:2] [M:2/2]c2c2- | 
[V:3] [M:2/2]z4 | 
[V:4] [M:2/2]z4 | 
[V:1] G2G2- | 
[V:2] cBG2- | 
[V:3] z4 | 
[V:4] z4 | 
[V:1] GFD2 | 
[V:2] GAB2 | 
[V:3] z4 | 
[V:4] z4 | 
[V:1] E2F2 | 
[V:2] c2A2 | 
[V:3] z4 | 
[V:4] z4 | 
[V:1] G2E2 | 
[V:2] Gc>Bc | 
[V:3] z4 | 
[V:4] z4 | 
[V:1] DG2F/E/ | 
[V:2] dB2A/G/ | 
[V:3] z4 | 
[V:4] z4 | 
[V:1] F2zG- | 
[V:2] A2G3/A/ | 
[V:3] z4 | 
[V:4] z4 | 
[V:1] GAB2 | 
[V:2] Bcd3/c/ | 
[V:3] z4 | 
[V:4] z4 | 
[V:1] cd>cA | 
[V:2] ABGF | 
[V:3] z4 | 
[V:4] z4 | 
[V:1] BGFG- | 
[V:2] GBAG- | 
[V:3] z4 | 
[V:4] z4 | 
[V:1] GED2 | 
[V:2] Gc2f | 
[V:3] z4 | 
[V:4] z4 | 
[V:1] CG2F/E/ | 
[V:2] ge2d/c/ | 
[V:3] z4 | 
[V:4] z4 | 
[V:1] F/E/D/C/B,C | 
[V:2] d/c/B/A/GA | 
[V:3] z4 | 
[V:4] z4 | 
[V:1] DE2F | 
[V:2] Bc2d | 
[V:3] z4 | 
[V:4] z4 | 
[V:1] GA>Gc- | 
[V:2] ef>ge | 
[V:3] z4 | 
[V:4] z4 | 
[V:1] cBAB- | 
[V:2] d2cd- | 
[V:3] z4 | 
[V:4] z4 | 
[V:1] BA/G/^F2 | 
[V:2] dc/B/A2 | 
[V:3] z4 | 
[V:4] z4 | 
[V:1] G2z2 | 
[V:2] G2z2 | 
[V:3] z4 | 
[V:4] G,,2G,,A,, | 
[V:1] z4 | 
[V:2] GAGc- | 
[V:3] z4 | 
[V:4] G,,C,>D,E,- | 
[V:1] z4 | 
[V:2] c/d/e2c- | 
[V:3] z4 | 
[V:4] E,C,2E,- | 
[V:1] z4 | 
[V:2] ce2g- | 
[V:3] z4 | 
[V:4] E,/F,/G,2E,- | 
[V:1] z4 | 
[V:2] gfe3/d//c// | 
[V:3] z4 | 
[V:4] E,/C,/D,C,/D,/E,/F,/ | 
[V:1] z4 | 
[V:2] B2zg- | 
[V:3] z4 | 
[V:4] G,2F,E,- | 
[V:1] z4 | 
[V:2] gf/e<de/ | 
[V:3] z4 | 
[V:4] E,D,/C,<B,,A,,/ | 
[V:1] z4 | 
[V:2] f/g/ede- | 
[V:3] z4 | 
[V:4] B,,C,B,,C,- | 
[V:1] z4 | 
[V:2] ed/c/Bc- | 
[V:3] z4 | 
[V:4] C,E,D,C, | 
[V:1] z2zD- | 
[V:2] cBAB- | 
[V:3] z4 | 
[V:4] D,2C,D,- | 
[V:1] D/E/F/G/ A/B/c/d/ | 
[V:2] BA/G/^F2 | 
[V:3] z4 | 
[V:4] D,B,,A,,2 | 
[V:1] BA2G- | 
[V:2] GcdB | 
[V:3] z4 | 
[V:4] G,,A,,B,,G,, | 
[V:1] G^FG2 | 
[V:2] A2Gc- | 
[V:3] z4 | 
[V:4] D,2E,C,- | 
[V:1] ECF2- | 
[V:2] cAd2- | 
[V:3] z4 | 
[V:4] C,F,2D,- | 
[V:1] FDG2- | 
[V:2] dBe2- | 
[V:3] z4 | 
[V:4] D,G,2E,- | 
[V:1] GEA2- | 
[V:2] e2cf- | 
[V:3] z4 | 
[V:4] E,A,2F,- | 
[V:1] AcBG- | 
[V:2] f/e/fge- | 
[V:3] z4 | 
[V:4] F,A,G,C,- | 
[V:1] GF/E/D2 | 
[V:2] ed/c/B2 | 
[V:3] z4 | 
[V:4] C,/D,/E,/F,/G,2 | 
[V:1] E4 ||  
[V:2] c4 ||  
[V:3] z4 ||  
[V:4] C,4 ||  
[V:1] [M:2/2]G4 | 
[V:2] [M:2/2]z4 | 
[V:3] [M:2/2]z4 | 
[V:4] [M:2/2]z4 | 
[V:1] G2G2 | 
[V:2] z4 | 
[V:3] z4 | 
[V:4] z4 | 
[V:1] A2A2 | 
[V:2] z4 | 
[V:3] z4 | 
[V:4] z4 | 
[V:1] G2G/A/B/A/ | 
[V:2] G4 | 
[V:3] z4 | 
[V:4] z4 | 
[V:1] B3A/G/ | 
[V:2] G2G2 | 
[V:3] z4 | 
[V:4] z4 | 
[V:1] FG2^F | 
[V:2] A2A2 | 
[V:3] z4 | 
[V:4] z4 | 
[V:1] G>FD2 | 
[V:2] G2G/A/B/A/ | 
[V:3] z4 | 
[V:4] G,,4 | 
[V:1] G,D2C/B,/ | 
[V:2] B3A/G/ | 
[V:3] z4 | 
[V:4] G,,2G,,2 | 
[V:1] A,2z2 | 
[V:2] ^FG2^F | 
[V:3] z4 | 
[V:4] A,,2A,,2 | 
[V:1] D3E- | 
[V:2] G2g2- | 
[V:3] G4 | 
[V:4] G,,>A,,B,,C,- | 
[V:1] E/D<GA/B | 
[V:2] gfe2 | 
[V:3] G2G2 | 
[V:4] C,/D,<E,D,/G,- | 
[V:1] c3B/A/ | 
[V:2] cf>ed/c/ | 
[V:3] A2A2 | 
[V:4] G,F,/E,/F,2 | 
[V:1] B2B/A/G/F/ | 
[V:2] B>cdB | 
[V:3] G4- | 
[V:4] G,4 | 
[V:1] E4 | 
[V:2] c3B | 
[V:3] G4 | 
[V:4] C,4- | 
[V:1] E2G2 | 
[V:2] c2Gc- | 
[V:3] G4- | 
[V:4] C,2C,2 | 
[V:1] EC2G- | 
[V:2] c/d/e2d- | 
[V:3] G4- | 
[V:4] C,3_B,,- | 
[V:1] GF/E/D2 | 
[V:2] dc2B | 
[V:3] G4- | 
[V:4] B,,C,G,,2 | 
[V:1] C/D/E/F/GF/E/ | 
[V:2] c4 | 
[V:3] G4 | 
[V:4] C,>D,E,2 | 
[V:1] F3F- | 
[V:2] d3c | 
[V:3] A4- | 
[V:4] D,4 | 
[V:1] F/G<AB/c- | 
[V:2] A>Bc3/B/ | 
[V:3] A4- | 
[V:4] D,>C,A,,2- | 
[V:1] c/B/A/G<^FE/ | 
[V:2] A/G<FG/A | 
[V:3] A4 | 
[V:4] A,,D,3 | 
[V:1] G4 | 
[V:2] B2c3/B/ | 
[V:3] G4- | 
[V:4] G,,2C,3/D,/ | 
[V:1] z4 | 
[V:2] G>A B/c/d | 
[V:3] G2GA | 
[V:4] E,/F,/G,2F, | 
[V:1] G>FDD | 
[V:2] e2f2 | 
[V:3] Gc2B | 
[V:4] E,C,D,2 | 
[V:1] ECGA | 
[V:2] eg2f | 
[V:3] c4 | 
[V:4] C,>D,E,F, | 
[V:1] Gc2B | 
[V:2] ecd2 | 
[V:3] z4 | 
[V:4] G,A,G,2 | 
[V:1] c4 | 
[V:2] c4 | 
[V:3] c4- | 
[V:4] C,4 | 
[V:1] G3G | 
[V:2] z4 | 
[V:3] c4 | 
[V:4] E,3E, | 
[V:1] A2G2 | 
[V:2] z4 | 
[V:3] c4 | 
[V:4] F,2E,2 | 
[V:1] E2A2 | 
[V:2] e2e2 | 
[V:3] c4 | 
[V:4] C,4 | 
[V:1] A3A | 
[V:2] f3e | 
[V:3] A4 | 
[V:4] z2F,2- | 
[V:1] A2c2 | 
[V:2] c2f2- | 
[V:3] A4- | 
[V:4] F,F,F,2 | 
[V:1] c2c2 | 
[V:2] ffc2 | 
[V:3] A4 | 
[V:4] zF,F,2 | 
[V:1] BA2G/F/ | 
[V:2] c2A2 | 
[V:3] A4 | 
[V:4] zF,F,2 | 
[V:1] E>FGC- | 
[V:2] G3g- | 
[V:3] c4- | 
[V:4] C,3C, | 
[V:1] CG2A | 
[V:2] g/f/e2d | 
[V:3] c4 | 
[V:4] C,2C,2 | 
[V:1] Gc2A | 
[V:2] e3f | 
[V:3] c4 | 
[V:4] z4 | 
[V:1] B4 | 
[V:2] g3f/e/ | 
[V:3] G4 | 
[V:4] E,3E, | 
[V:1] G2G3/F/ | 
[V:2] f/e/d/c/B2 | 
[V:3] G4 | 
[V:4] E,2E,2- | 
[V:1] GA>GF/E/ | 
[V:2] z4 | 
[V:3] z4 | 
[V:4] E,F,E,D,/C,/ | 
[V:1] D>CD2 | 
[V:2] z4 | 
[V:3] z4 | 
[V:4] B,,>A,,B,,2 | 
[V:1] E3F | 
[V:2] c3B | 
[V:3] G4 | 
[V:4] C,4 | 
[V:1] G3A | 
[V:2] G>AB2 | 
[V:3] d4- | 
[V:4] B,,4- | 
[V:1] B2B/A/G/F/ | 
[V:2] G/A/B/c/d2 | 
[V:3] d4 | 
[V:4] B,,2B,,2 | 
[V:1] E2E2 | 
[V:2] cg2f/e/ | 
[V:3] G3A | 
[V:4] C,4 | 
[V:1] D2zD | 
[V:2] f4 | 
[V:3] Bcd2 | 
[V:4] B,,2B,,2 | 
[V:1] EG2F/E/ | 
[V:2] e2Bc | 
[V:3] G4 | 
[V:4] C,2E,2 | 
[V:1] F2F2 | 
[V:2] d2d2 | 
[V:3] A4 | 
[V:4] D,4 | 
[V:1] zG>FE- | 
[V:2] B2cG- | 
[V:3] G4- | 
[V:4] E,2C,2 | 
[V:1] ED/C/B,2 | 
[V:2] GED2 | 
[V:3] G4 | 
[V:4] C,C,G,,2 | 
[V:1] CE2D- | 
[V:2] E>F G/A/B- | 
[V:3] z4 | 
[V:4] C,2B,,G,,- | 
[V:1] DC/B,/A,2 | 
[V:2] BA/G/^F2 | 
[V:3] z4 | 
[V:4] G,,/A,,/B,,/C,/D,2 | 
[V:1] G,4 ||  
[V:2] [G4d4] ||  
[V:3] G4 ||  
[V:4] G,,4 ||  
[V:1] [M:3/2]z6 | 
[V:2] [M:3/2]c6 | 
[V:3] [M:3/2]z6 | 
[V:4] [M:3/2]z6 | 
[V:1] G6 | 
[V:2] c4B2 | 
[V:3] z6 | 
[V:4] z6 | 
[V:1] G2>F2D2- | 
[V:2] G4B2- | 
[V:3] z6 | 
[V:4] z6 | 
[V:1] DE2<F2G | 
[V:2] B2d4 | 
[V:3] z6 | 
[V:4] z6 | 
[V:1] A2>G2ED | 
[V:2] A2c4 | 
[V:3] z6 | 
[V:4] z6 | 
[V:1] G4^F2 | 
[V:2] B2A4 | 
[V:3] z6 | 
[V:4] z6 | 
[V:1] G4z2 | 
[V:2] z6 | 
[V:3] G6 | 
[V:4] G,,4C,2- | 
[V:1] z6 | 
[V:2] z6 | 
[V:3] G2>A2Bc | 
[V:4] C,2E,4 | 
[V:1] z6 | 
[V:2] z6 | 
[V:3] d6 | 
[V:4] D,2>E,2F,2 | 
[V:1] z6 | 
[V:2] z6 | 
[V:3] e4d2 | 
[V:4] G,2C,2B,,2 | 
[V:1] z6 | 
[V:2] z6 | 
[V:3] c4B2 | 
[V:4] C,2D,4 | 
[V:1] E2>F2G2 | 
[V:2] G2>A2B2 | 
[V:3] c4z2 | 
[V:4] C,4z2 | 
[V:1] A2BA2G/F/ | 
[V:2] c2d4 | 
[V:3] z6 | 
[V:4] z6 | 
[V:1] E2>F2G2 | 
[V:2] c2>d2ef | 
[V:3] z6 | 
[V:4] z6 | 
[V:1] C2c2B2 | 
[V:2] g2c2G2 | 
[V:3] z6 | 
[V:4] z6 | 
[V:1] A2GF2E/D/ | 
[V:2] A4B2 | 
[V:3] z6 | 
[V:4] z6 | 
[V:1] E4z2 | 
[V:2] c4z2 | 
[V:3] c4c2 | 
[V:4] z6 | 
[V:1] z6 | 
[V:2] z6 | 
[V:3] A4A2 | 
[V:4] C,4C,2 | 
[V:1] z6 | 
[V:2] z6 | 
[V:3] c4c2 | 
[V:4] A,,4A,,2 | 
[V:1] z6 | 
[V:2] z6 | 
[V:3] G2>A2Bc | 
[V:4] C,4B,,2 | 
[V:1] z6 | 
[V:2] z6 | 
[V:3] d2cB2A | 
[V:4] G,,2A,,B,,2C, | 
[V:1] z6 | 
[V:2] z6 | 
[V:3] A4^G2 | 
[V:4] D,2D,/C,/B,,/A,,/B,,2 | 
[V:1] E2>F2G2 | 
[V:2] c2>d2e2 | 
[V:3] A4z2 | 
[V:4] A,,4z2 | 
[V:1] A2>B2c2 | 
[V:2] f2>d2e2 | 
[V:3] z6 | 
[V:4] z6 | 
[V:1] d3c/B/ c/B/A/G/ | 
[V:2] d2g4 | 
[V:3] z6 | 
[V:4] z6 | 
[V:1] A2B3A | 
[V:2] f2g2G2 | 
[V:3] z6 | 
[V:4] z6 | 
[V:1] G4^F2 | 
[V:2] B2A4 | 
[V:3] z6 | 
[V:4] z6 | 
[V:1] G4z2 | 
[V:2] G4z2 | 
[V:3] c4c2 | 
[V:4] C,4F,2 | 
[V:1] c4c2 | 
[V:2] z6 | 
[V:3] A2>B2c2 | 
[V:4] F,2>G,2A,2 | 
[V:1] A4B2 | 
[V:2] A4G2 | 
[V:3] d2>c2BA | 
[V:4] D,>E,F,2G,2 | 
[V:1] d2>c2_BA | 
[V:2] g4d2 | 
[V:3] G2>A2_B2 | 
[V:4] _B,2>A,2G,2 | 
[V:1] G4F2 | 
[V:2] e2dd>cB/A/ | 
[V:3] c2A4 | 
[V:4] C,2D,4 | 
[V:1] E2D4 | 
[V:2] B2G2F2 | 
[V:3] z6 | 
[V:4] G,,>A,,B,,C,D,2 | 
[V:1] G2ABcd | 
[V:2] G2c2A2 | 
[V:3] z6 | 
[V:4] E,2F,4 | 
[V:1] B2A3G | 
[V:2] G2d2_B2 | 
[V:3] z6 | 
[V:4] G,2D,2_E,2- | 
[V:1] G4^F2 | 
[V:2] G2A4 | 
[V:3] z6 | 
[V:4] E,2D,4 | 
[V:1] G6- | 
[V:2] B6 | 
[V:3] G6- | 
[V:4] G,,6- | 
[V:1] G6 |]  
[V:2] d6 |]  
[V:3] G6 |]  
[V:4] G,,6 |]  


